X:386
T:Flowers of Edinburgh - Bampton
M:2/2
L:1/8
K:G
DEFD G2 A2 | B2 B2 BdcB | AGFG EFGA | B2 E2 E2 GE |
DEFD G2 A2 | B2 B2 Bgge | dcBA GFGA | B2 G2 G4 :||
g6 ag | f6 af | e2 e2 efge | B2 e2 efge |
dBGB d2 d2 | e2 e2 efge | dcBA GFGA | B2 G2 G4 :||
